Newaita-dark/apps/24/terminator.svg

<svg height="24" viewBox="0 0 24 24" width="24" xmlns="http://www.w3.org/2000/svg" xmlns:xlink="http://www.w3.org/1999/xlink"><linearGradient id="a" gradientUnits="userSpaceOnUse" x1="11.411244" x2="11.411244" y1="21.02545025" y2="22.01773325002"><stop offset="0" stop-opacity=".27451"/><stop offset="1" stop-opacity="0"/></linearGradient><linearGradient id="b"><stop offset="0" stop-opacity=".313726"/><stop offset=".222222" stop-opacity=".27451"/><stop offset="1" stop-opacity="0"/></linearGradient><radialGradient id="c" cx="450.908936" cy="189.579361" gradientTransform="matrix(.00000013 -.0585994 -.105479 -.00000008 40.090266 47.696499)" gradientUnits="userSpaceOnUse" r="21.166656" xlink:href="#b"/><radialGradient id="d" cx="450.908936" cy="189.579361" gradientTransform="matrix(-.00000013 .0585994 .105479 .00000008 -16.27549 -5.645609)" gradientUnits="userSpaceOnUse" r="21.166656" xlink:href="#b"/><radialGradient id="e" cx="450.908936" cy="189.579361" gradientTransform="matrix(-.00000013 -.0585994 .105479 -.00000008 -16.27549 47.696499)" gradientUnits="userSpaceOnUse" r="21.166656" xlink:href="#b"/><radialGradient id="f" cx="450.908936" cy="189.579361" gradientTransform="matrix(.00000013 .0585994 -.105479 .00000008 40.090265 -5.64561)" gradientUnits="userSpaceOnUse" r="21.166656" xlink:href="#b"/><linearGradient id="g" gradientTransform="matrix(.0540552 0 0 .14297 -3.681905 23.382369)" gradientUnits="userSpaceOnUse" x1="307.62677" x2="305.954529" y1="-22.391003" y2="-141.414581"><stop offset="0" stop-color="#424242"/><stop offset="1" stop-color="#616161"/></linearGradient><linearGradient id="h"><stop offset="0" stop-color="#ef5350"/><stop offset="1" stop-color="#e57373"/></linearGradient><linearGradient id="i" gradientTransform="matrix(-.0540552 0 0 .14297 27.496678 23.382369)" gradientUnits="userSpaceOnUse" x1="306.752686" x2="305.954529" xlink:href="#h" y1="-16.485477" y2="-141.414581"/><linearGradient id="j"><stop offset="0" stop-color="#f44336"/><stop offset="1" stop-color="#ef5350"/></linearGradient><linearGradient id="k" gradientTransform="matrix(.0540552 0 0 .14297 -3.681904 23.382368)" gradientUnits="userSpaceOnUse" x1="306.752686" x2="305.954529" xlink:href="#j" y1="-16.485477" y2="-141.414581"/><linearGradient id="l" gradientTransform="matrix(.0540552 0 0 -.14297 -3.681904 .807428)" gradientUnits="userSpaceOnUse" x1="251.682175" x2="251.682175" xlink:href="#h" y1="-141.414673" y2="-16.485561"/><linearGradient id="m" gradientTransform="matrix(-.0540552 0 0 -.14297 27.496678 .807429)" gradientUnits="userSpaceOnUse" x1="260.860596" x2="260.860596" xlink:href="#j" y1="-141.414673" y2="-16.485558"/><path d="m3.472656 21.082031h16.867188v.9375h-16.867188zm0 0" fill="url(#a)"/><path d="m20.339844 21.027344h1.988281v-.996094h-1.988281zm0 0" fill="url(#c)"/><path d="m3.472656 21.027344h-1.984375v.992187h1.984375zm0 0" fill="url(#d)"/><path d="m3.472656 21.027344h-1.984375v-.996094h1.984375zm0 0" fill="url(#e)"/><path d="m20.339844 21.027344h1.988281v.992187h-1.988281zm0 0" fill="url(#f)"/><path d="m2.480469 3.164062h18.855469c.546874 0 .992187.417969.992187.9375v15.988282c0 .515625-.445313.9375-.992187.9375h-18.855469c-.546875 0-.992188-.421875-.992188-.9375v-15.988282c0-.519531.445313-.9375.992188-.9375zm0 0" fill="url(#g)"/><path d="m21.335938 3.164062c.546874 0 .992187.417969.992187.9375v7.992188h-10.421875v-8.929688zm0 0" fill="url(#i)"/><path d="m2.480469 3.164062c-.550781 0-.992188.417969-.992188.9375v7.992188h10.417969v-8.929688zm0 0" fill="url(#k)"/><path d="m2.480469 21.027344c-.550781 0-.992188-.417969-.992188-.9375v-7.996094h10.417969v8.933594zm0 0" fill="url(#l)"/><path d="m6.492188 5.894531c-.195313-.195312-.507813-.195312-.703126 0-.191406.191407-.191406.507813 0 .699219l1.40625 1.40625-1.40625 1.402344c-.191406.195312-.191406.507812 0 .699218.195313.195313.507813.195313.703126 0l1.753906-1.753906.035156-.035156c.160156-.195312.148438-.484375-.035156-.664062zm0 0" fill="#ececec" fill-opacity=".588235"/><path d="m2.480469 3.164062c-.550781 0-.992188.417969-.992188.9375v.246094c0-.515625.441407-.933594.992188-.933594h18.855469c.546874 0 .992187.417969.992187.933594v-.246094c0-.519531-.445313-.9375-.992187-.9375zm0 0" fill="#fff" fill-opacity=".392157"/><path d="m21.335938 21.027344c.546874 0 .992187-.417969.992187-.9375v-7.996094h-10.421875v8.933594zm0 0" fill="url(#m)"/><path d="m2.480469 21.03125c-.550781 0-.992188-.417969-.992188-.9375v-.246094c0 .519532.441407.9375.992188.9375h18.855469c.546874 0 .992187-.417968.992187-.9375v.246094c0 .519531-.445313.9375-.992187.9375zm0 0" fill-opacity=".235294"/><path d="m2.976562 4.097656c-.304687 0-.554687.25-.554687.554688v13.890625c0 .308593.25.554687.554687.554687h17.863282c.304687 0 .554687-.246094.554687-.554687v-13.890625c0-.304688-.25-.554688-.554687-.554688zm0 .117188h17.863282c.242187 0 .4375.195312.4375.4375v13.890625c0 .246093-.195313.4375-.4375.4375h-17.863282c-.242187 0-.4375-.191407-.4375-.4375v-13.890625c0-.242188.195313-.4375.4375-.4375zm0 0" fill="#212121"/><path d="m2.976562 4.222656c-.238281 0-.429687.191406-.429687.429688v13.890625c0 .238281.191406.433593.429687.433593h17.863282c.234375 0 .429687-.195312.429687-.433593v-13.890625c0-.238282-.195312-.429688-.429687-.429688zm0 .117188h17.863282c.171875 0 .3125.136718.3125.3125v13.890625c0 .175781-.140625.316406-.3125.316406h-17.863282c-.175781 0-.3125-.140625-.3125-.316406v-13.890625c0-.175782.136719-.3125.3125-.3125zm0 0" fill="#dedede" fill-opacity=".705882"/><path d="m52.911614-147.506445h402.211591c11.665552 0 21.164645 8.915815 21.164645 19.99809v341.050765c0 10.998949-9.499093 19.99809-21.164645 19.99809h-402.211591c-11.665553 0-21.164646-8.999141-21.164646-19.99809v-341.050765c0-11.082275 9.499093-19.99809 21.164646-19.99809zm0 0" fill="none" stroke="#212121" stroke-linecap="round" stroke-width="3" transform="matrix(.0468795 0 0 .0468795 0 10.079087)"/><path d="m16.664062 13.960938c-.195312-.195313-.507812-.195313-.703124 0-.195313.191406-.195313.503906 0 .699218l1.402343 1.402344-1.402343 1.40625c-.195313.191406-.195313.507812 0 .699219.195312.195312.507812.195312.703124 0l1.753907-1.753907c.011719-.011718.023437-.023437.035156-.035156.15625-.195312.148437-.484375-.035156-.664062zm0 0" fill="#ececec" fill-opacity=".588235"/></svg>

<?xml version="1.0" encoding="UTF-8"?>
<svg xmlns="http://www.w3.org/2000/svg" xmlns:xlink="http://www.w3.org/1999/xlink" width="24px" height="24px" viewBox="0 0 24 24" version="1.1">
<defs>
<linearGradient id="linear0" gradientUnits="userSpaceOnUse" x1="254" y1="233.5" x2="254" y2="254.666672" gradientTransform="matrix(0.0468795,0,0,0.0468795,-0.496149,10.079087)">
<stop offset="0" style="stop-color:rgb(0%,0%,0%);stop-opacity:0.27451;"/>
<stop offset="1" style="stop-color:rgb(0%,0%,0%);stop-opacity:0;"/>
</linearGradient>
<radialGradient id="radial0" gradientUnits="userSpaceOnUse" cx="450.908936" cy="189.579361" fx="450.908936" fy="189.579361" r="21.166656" gradientTransform="matrix(0.000000130628,-0.0585994,-0.105479,-0.0000000761539,40.090266,47.696499)">
<stop offset="0" style="stop-color:rgb(0%,0%,0%);stop-opacity:0.313726;"/>
<stop offset="0.222222" style="stop-color:rgb(0%,0%,0%);stop-opacity:0.27451;"/>
<stop offset="1" style="stop-color:rgb(0%,0%,0%);stop-opacity:0;"/>
</radialGradient>
<radialGradient id="radial1" gradientUnits="userSpaceOnUse" cx="450.908936" cy="189.579361" fx="450.908936" fy="189.579361" r="21.166656" gradientTransform="matrix(-0.000000130628,0.0585994,0.105479,0.0000000761539,-16.27549,-5.645609)">
<stop offset="0" style="stop-color:rgb(0%,0%,0%);stop-opacity:0.313726;"/>
<stop offset="0.222222" style="stop-color:rgb(0%,0%,0%);stop-opacity:0.27451;"/>
<stop offset="1" style="stop-color:rgb(0%,0%,0%);stop-opacity:0;"/>
</radialGradient>
<radialGradient id="radial2" gradientUnits="userSpaceOnUse" cx="450.908936" cy="189.579361" fx="450.908936" fy="189.579361" r="21.166656" gradientTransform="matrix(-0.000000130628,-0.0585994,0.105479,-0.0000000761539,-16.27549,47.696499)">
<stop offset="0" style="stop-color:rgb(0%,0%,0%);stop-opacity:0.313726;"/>
<stop offset="0.222222" style="stop-color:rgb(0%,0%,0%);stop-opacity:0.27451;"/>
<stop offset="1" style="stop-color:rgb(0%,0%,0%);stop-opacity:0;"/>
</radialGradient>
<radialGradient id="radial3" gradientUnits="userSpaceOnUse" cx="450.908936" cy="189.579361" fx="450.908936" fy="189.579361" r="21.166656" gradientTransform="matrix(0.000000130628,0.0585994,-0.105479,0.0000000761539,40.090265,-5.64561)">
<stop offset="0" style="stop-color:rgb(0%,0%,0%);stop-opacity:0.313726;"/>
<stop offset="0.222222" style="stop-color:rgb(0%,0%,0%);stop-opacity:0.27451;"/>
<stop offset="1" style="stop-color:rgb(0%,0%,0%);stop-opacity:0;"/>
</radialGradient>
<linearGradient id="linear1" gradientUnits="userSpaceOnUse" x1="307.62677" y1="-22.391003" x2="305.954529" y2="-141.414581" gradientTransform="matrix(0.0540552,0,0,0.14297,-3.681905,23.382369)">
<stop offset="0" style="stop-color:rgb(25.882354%,25.882354%,25.882354%);stop-opacity:1;"/>
<stop offset="1" style="stop-color:rgb(38.039216%,38.039216%,38.039216%);stop-opacity:1;"/>
</linearGradient>
<linearGradient id="linear2" gradientUnits="userSpaceOnUse" x1="306.752686" y1="-16.485477" x2="305.954529" y2="-141.414581" gradientTransform="matrix(-0.0540552,0,0,0.14297,27.496678,23.382369)">
<stop offset="0" style="stop-color:rgb(93.725491%,32.549021%,31.37255%);stop-opacity:1;"/>
<stop offset="1" style="stop-color:rgb(89.803922%,45.09804%,45.09804%);stop-opacity:1;"/>
</linearGradient>
<linearGradient id="linear3" gradientUnits="userSpaceOnUse" x1="306.752686" y1="-16.485477" x2="305.954529" y2="-141.414581" gradientTransform="matrix(0.0540552,0,0,0.14297,-3.681904,23.382368)">
<stop offset="0" style="stop-color:rgb(95.686275%,26.274511%,21.176471%);stop-opacity:1;"/>
<stop offset="1" style="stop-color:rgb(93.725491%,32.549021%,31.37255%);stop-opacity:1;"/>
</linearGradient>
<linearGradient id="linear4" gradientUnits="userSpaceOnUse" x1="251.682175" y1="-141.414673" x2="251.682175" y2="-16.485561" gradientTransform="matrix(0.0540552,0,0,-0.14297,-3.681904,0.807428)">
<stop offset="0" style="stop-color:rgb(93.725491%,32.549021%,31.37255%);stop-opacity:1;"/>
<stop offset="1" style="stop-color:rgb(89.803922%,45.09804%,45.09804%);stop-opacity:1;"/>
</linearGradient>
<linearGradient id="linear5" gradientUnits="userSpaceOnUse" x1="260.860596" y1="-141.414673" x2="260.860596" y2="-16.485558" gradientTransform="matrix(-0.0540552,0,0,-0.14297,27.496678,0.807429)">
<stop offset="0" style="stop-color:rgb(95.686275%,26.274511%,21.176471%);stop-opacity:1;"/>
<stop offset="1" style="stop-color:rgb(93.725491%,32.549021%,31.37255%);stop-opacity:1;"/>
</linearGradient>
</defs>
<g id="surface1">
<path style=" stroke:none;fill-rule:nonzero;fill:url(#linear0);" d="M 3.472656 21.082031 L 20.339844 21.082031 L 20.339844 22.019531 L 3.472656 22.019531 Z M 3.472656 21.082031 "/>
<path style=" stroke:none;fill-rule:nonzero;fill:url(#radial0);" d="M 20.339844 21.027344 L 22.328125 21.027344 L 22.328125 20.03125 L 20.339844 20.03125 Z M 20.339844 21.027344 "/>
<path style=" stroke:none;fill-rule:nonzero;fill:url(#radial1);" d="M 3.472656 21.027344 L 1.488281 21.027344 L 1.488281 22.019531 L 3.472656 22.019531 Z M 3.472656 21.027344 "/>
<path style=" stroke:none;fill-rule:nonzero;fill:url(#radial2);" d="M 3.472656 21.027344 L 1.488281 21.027344 L 1.488281 20.03125 L 3.472656 20.03125 Z M 3.472656 21.027344 "/>
<path style=" stroke:none;fill-rule:nonzero;fill:url(#radial3);" d="M 20.339844 21.027344 L 22.328125 21.027344 L 22.328125 22.019531 L 20.339844 22.019531 Z M 20.339844 21.027344 "/>
<path style=" stroke:none;fill-rule:nonzero;fill:url(#linear1);" d="M 2.480469 3.164062 L 21.335938 3.164062 C 21.882812 3.164062 22.328125 3.582031 22.328125 4.101562 L 22.328125 20.089844 C 22.328125 20.605469 21.882812 21.027344 21.335938 21.027344 L 2.480469 21.027344 C 1.933594 21.027344 1.488281 20.605469 1.488281 20.089844 L 1.488281 4.101562 C 1.488281 3.582031 1.933594 3.164062 2.480469 3.164062 Z M 2.480469 3.164062 "/>
<path style=" stroke:none;fill-rule:nonzero;fill:url(#linear2);" d="M 21.335938 3.164062 C 21.882812 3.164062 22.328125 3.582031 22.328125 4.101562 L 22.328125 12.09375 L 11.90625 12.09375 L 11.90625 3.164062 Z M 21.335938 3.164062 "/>
<path style=" stroke:none;fill-rule:nonzero;fill:url(#linear3);" d="M 2.480469 3.164062 C 1.929688 3.164062 1.488281 3.582031 1.488281 4.101562 L 1.488281 12.09375 L 11.90625 12.09375 L 11.90625 3.164062 Z M 2.480469 3.164062 "/>
<path style=" stroke:none;fill-rule:nonzero;fill:url(#linear4);" d="M 2.480469 21.027344 C 1.929688 21.027344 1.488281 20.609375 1.488281 20.089844 L 1.488281 12.09375 L 11.90625 12.09375 L 11.90625 21.027344 Z M 2.480469 21.027344 "/>
<path style=" stroke:none;fill-rule:nonzero;fill:rgb(92.54902%,92.54902%,92.54902%);fill-opacity:0.588235;" d="M 6.492188 5.894531 C 6.296875 5.699219 5.984375 5.699219 5.789062 5.894531 C 5.597656 6.085938 5.597656 6.402344 5.789062 6.59375 L 7.195312 8 L 5.789062 9.402344 C 5.597656 9.597656 5.597656 9.910156 5.789062 10.101562 C 5.984375 10.296875 6.296875 10.296875 6.492188 10.101562 L 8.246094 8.347656 C 8.257812 8.335938 8.269531 8.324219 8.28125 8.3125 C 8.441406 8.117188 8.429688 7.828125 8.246094 7.648438 Z M 6.492188 5.894531 "/>
<path style=" stroke:none;fill-rule:nonzero;fill:rgb(100%,100%,100%);fill-opacity:0.392157;" d="M 2.480469 3.164062 C 1.929688 3.164062 1.488281 3.582031 1.488281 4.101562 L 1.488281 4.347656 C 1.488281 3.832031 1.929688 3.414062 2.480469 3.414062 L 21.335938 3.414062 C 21.882812 3.414062 22.328125 3.832031 22.328125 4.347656 L 22.328125 4.101562 C 22.328125 3.582031 21.882812 3.164062 21.335938 3.164062 Z M 2.480469 3.164062 "/>
<path style=" stroke:none;fill-rule:nonzero;fill:url(#linear5);" d="M 21.335938 21.027344 C 21.882812 21.027344 22.328125 20.609375 22.328125 20.089844 L 22.328125 12.09375 L 11.90625 12.09375 L 11.90625 21.027344 Z M 21.335938 21.027344 "/>
<path style=" stroke:none;fill-rule:nonzero;fill:rgb(0%,0%,0%);fill-opacity:0.235294;" d="M 2.480469 21.03125 C 1.929688 21.03125 1.488281 20.613281 1.488281 20.09375 L 1.488281 19.847656 C 1.488281 20.367188 1.929688 20.785156 2.480469 20.785156 L 21.335938 20.785156 C 21.882812 20.785156 22.328125 20.367188 22.328125 19.847656 L 22.328125 20.09375 C 22.328125 20.613281 21.882812 21.03125 21.335938 21.03125 Z M 2.480469 21.03125 "/>
<path style=" stroke:none;fill-rule:nonzero;fill:rgb(12.941177%,12.941177%,12.941177%);fill-opacity:1;" d="M 2.976562 4.097656 C 2.671875 4.097656 2.421875 4.347656 2.421875 4.652344 L 2.421875 18.542969 C 2.421875 18.851562 2.671875 19.097656 2.976562 19.097656 L 20.839844 19.097656 C 21.144531 19.097656 21.394531 18.851562 21.394531 18.542969 L 21.394531 4.652344 C 21.394531 4.347656 21.144531 4.097656 20.839844 4.097656 Z M 2.976562 4.214844 L 20.839844 4.214844 C 21.082031 4.214844 21.277344 4.410156 21.277344 4.652344 L 21.277344 18.542969 C 21.277344 18.789062 21.082031 18.980469 20.839844 18.980469 L 2.976562 18.980469 C 2.734375 18.980469 2.539062 18.789062 2.539062 18.542969 L 2.539062 4.652344 C 2.539062 4.410156 2.734375 4.214844 2.976562 4.214844 Z M 2.976562 4.214844 "/>
<path style=" stroke:none;fill-rule:nonzero;fill:rgb(87.058824%,87.058824%,87.058824%);fill-opacity:0.705882;" d="M 2.976562 4.222656 C 2.738281 4.222656 2.546875 4.414062 2.546875 4.652344 L 2.546875 18.542969 C 2.546875 18.78125 2.738281 18.976562 2.976562 18.976562 L 20.839844 18.976562 C 21.074219 18.976562 21.269531 18.78125 21.269531 18.542969 L 21.269531 4.652344 C 21.269531 4.414062 21.074219 4.222656 20.839844 4.222656 Z M 2.976562 4.339844 L 20.839844 4.339844 C 21.011719 4.339844 21.152344 4.476562 21.152344 4.652344 L 21.152344 18.542969 C 21.152344 18.71875 21.011719 18.859375 20.839844 18.859375 L 2.976562 18.859375 C 2.800781 18.859375 2.664062 18.71875 2.664062 18.542969 L 2.664062 4.652344 C 2.664062 4.476562 2.800781 4.339844 2.976562 4.339844 Z M 2.976562 4.339844 "/>
<path style="fill:none;stroke-width:3;stroke-linecap:round;stroke-linejoin:miter;stroke:rgb(12.941177%,12.941177%,12.941177%);stroke-opacity:1;stroke-miterlimit:4;" d="M 52.911614 -147.506445 L 455.123205 -147.506445 C 466.788757 -147.506445 476.28785 -138.59063 476.28785 -127.508355 L 476.28785 213.54241 C 476.28785 224.541359 466.788757 233.5405 455.123205 233.5405 L 52.911614 233.5405 C 41.246061 233.5405 31.746968 224.541359 31.746968 213.54241 L 31.746968 -127.508355 C 31.746968 -138.59063 41.246061 -147.506445 52.911614 -147.506445 Z M 52.911614 -147.506445 " transform="matrix(0.0468795,0,0,0.0468795,0,10.079087)"/>
<path style=" stroke:none;fill-rule:nonzero;fill:rgb(92.54902%,92.54902%,92.54902%);fill-opacity:0.588235;" d="M 16.664062 13.960938 C 16.46875 13.765625 16.15625 13.765625 15.960938 13.960938 C 15.765625 14.152344 15.765625 14.464844 15.960938 14.660156 L 17.363281 16.0625 L 15.960938 17.46875 C 15.765625 17.660156 15.765625 17.976562 15.960938 18.167969 C 16.15625 18.363281 16.46875 18.363281 16.664062 18.167969 L 18.417969 16.414062 C 18.429688 16.402344 18.441406 16.390625 18.453125 16.378906 C 18.609375 16.183594 18.601562 15.894531 18.417969 15.714844 Z M 16.664062 13.960938 "/>
</g>
</svg>
